X: 36550
T: Seven Eighths Of Roxburgh Castle
R: reel
M: 4/4
K: Amajor
M:7/8
|:A2 Ac ec A|d2 df ec A|d2 fd ce A|BA Bc dc B|
A2 Ac ec A|d2 df ec A|ea gf ed c|1 ec Bc A cB:|2 ec Bc A ce||
|:ae ce fe c|ae ce fe c|d2 fd ce A|BA Bc dc B|
A2 Ac ec A|d2 df ec A|ea gf ed c|1 ec Bc A ce:|2 ec Bc A cB||

